2.WithTST/chrome/icons/developer.svg

<svg xmlns="http://www.w3.org/2000/svg" width="16" height="16" viewBox="0 0 16 16">
   <path
   style="fill:context-fill;fill-opacity:context-fill-opacity"
   d="M 2.5 0 C 1.11929 0 0 1.11928 0 2.5 L 0 11.5 C 0 12.8807 1.11929 14 2.5 14 L 7.6425781 14 C 7.6765097 13.919413 7.7052647 13.837248 7.75 13.759766 L 8.1894531 13 L 2.5 13 C 1.67157 13 1 12.3284 1 11.5 L 1 3.9980469 L 13 3.9980469 L 14 4 L 14 2.5 C 14 1.11929 12.8807 0 11.5 0 L 2.5 0 z M 2.4980469 0.99804688 L 11.498047 0.99804688 C 12.326547 0.99804688 12.998047 1.6696169 12.998047 2.4980469 L 12.998047 2.9980469 L 0.99804688 2.9980469 L 0.99804688 2.4980469 C 0.99804688 1.6696169 1.6696269 0.99804688 2.4980469 0.99804688 z M 5.9980469 4.9980469 C 5.8700856 4.9980469 5.7421664 5.046901 5.6445312 5.1445312 L 3.1445312 7.6445312 C 2.9492714 7.8397913 2.9492613 8.1562625 3.1445312 8.3515625 L 5.6445312 10.851562 C 5.8397913 11.046762 6.1563025 11.046762 6.3515625 10.851562 C 6.5468225 10.656263 6.5468225 10.339731 6.3515625 10.144531 L 4.2050781 7.9980469 L 6.3515625 5.8515625 C 6.5468225 5.6563025 6.5468225 5.3397913 6.3515625 5.1445312 C 6.2539325 5.0469013 6.1260081 4.9980469 5.9980469 4.9980469 z M 8.4980469 4.9980469 C 8.3700844 4.9980469 8.2421313 5.046901 8.1445312 5.1445312 C 7.9492315 5.3397913 7.9492315 5.6563025 8.1445312 5.8515625 L 9.6796875 7.3867188 C 9.7505735 7.1156932 9.8564801 6.8485697 10.005859 6.5898438 C 10.041239 6.5285607 10.084749 6.4745821 10.123047 6.4160156 L 8.8515625 5.1445312 C 8.7539125 5.0469012 8.6260094 4.9980469 8.4980469 4.9980469 z M 13.339844 5.7011719 C 12.363581 5.6718839 11.401509 6.1725423 10.878906 7.0898438 C 10.323396 8.0648784 10.418654 9.239876 11.025391 10.099609 L 8.6523438 14.261719 C 8.3366865 14.815769 8.5255408 15.523863 9.0722656 15.84375 C 9.6189902 16.163637 10.317156 15.973972 10.632812 15.419922 L 13.009766 11.25 C 14.040834 11.34363 15.079101 10.839456 15.630859 9.8710938 C 16.228121 8.8227091 16.076258 7.5442644 15.341797 6.6738281 L 14.048828 8.9433594 C 13.796341 9.3865797 13.236286 9.5410257 12.798828 9.2851562 C 12.361468 9.0292867 12.212358 8.4607985 12.464844 8.0175781 L 13.757812 5.7460938 C 13.618935 5.7199177 13.479311 5.705356 13.339844 5.7011719 z M 9.6191406 8.6699219 L 8.1445312 10.144531 C 7.9492315 10.339731 7.9492314 10.656263 8.1445312 10.851562 C 8.3397312 11.046762 8.6562625 11.046762 8.8515625 10.851562 L 9.9023438 9.8027344 C 9.7556562 9.4367904 9.6641372 9.0567522 9.6191406 8.6699219 z " />
</svg>

<svg xmlns="http://www.w3.org/2000/svg" width="16" height="16">
  <path style="fill:context-fill;fill-opacity:context-fill-opacity" d="M2.5 0A2.5 2.5 0 0 0 0 2.5v9A2.5 2.5 0 0 0 2.5 14h5.143c.034-.08.062-.163.107-.24l.44-.76H2.5A1.5 1.5 0 0 1 1 11.5V3.998h12L14 4V2.5A2.5 2.5 0 0 0 11.5 0h-9zm-.002.998h9a1.5 1.5 0 0 1 1.5 1.5v.5h-12v-.5a1.5 1.5 0 0 1 1.5-1.5zm3.5 4a.498.498 0 0 0-.353.147l-2.5 2.5a.5.5 0 0 0 0 .707l2.5 2.5a.5.5 0 0 0 .707-.707L4.205 7.998l2.147-2.146a.5.5 0 0 0-.354-.854zm2.5 0a.498.498 0 0 0-.353.854L9.68 7.387a3.21 3.21 0 0 1 .326-.797c.035-.061.079-.115.117-.174L8.852 5.145a.498.498 0 0 0-.354-.147zm4.842.703a2.737 2.737 0 0 0-2.461 1.389c-.556.975-.46 2.15.146 3.01l-2.373 4.162a1.167 1.167 0 0 0 .42 1.582c.547.32 1.245.13 1.56-.424l2.378-4.17a2.731 2.731 0 0 0 2.62-1.379 2.81 2.81 0 0 0-.288-3.197l-1.293 2.27a.91.91 0 0 1-1.25.341.935.935 0 0 1-.334-1.267l1.293-2.272a2.69 2.69 0 0 0-.418-.045zM9.62 8.67l-1.475 1.475a.5.5 0 1 0 .707.707l1.05-1.05A4.401 4.401 0 0 1 9.62 8.67z"/>
</svg>
